X:1
T:Buxtehude - Sonata in D for Viola da gamba. {Professional production full score.}
T:Dietrich Buxtehude Gamba Sonata BuxWV 268
%%score [ ( 1 2 ) 3 ] ( 4 5 )
L:1/8
Q:1/4=100
M:4/4
K:D
V:1 alto nm="Viola da Gamba"
V:2 alto 
V:3 bass nm="Basso continuo"
V:4 bass nm="Harpsichord" snm="Hch."
V:5 bass 
V:1
!f! D4 PE4 | FA/A/AA FD CA,/G,/ | F,/D/D/D/ C/E/E/E/ F/A/A/A/ MA>^G | %3
 AF E/D/C/B,/ A,D C/B,/A,/G,/ | F,/A,/B,/C/ D/E/F/G/ Ad Md>c | d4 z4 | %6
[K:bass] z D C/B,/A,/G,/ F,B, A,/G,/F,/E,/ | %7
 D,D,,/E,,/ F,,/D,,/F,,/G,,/ A,,/D,/D,/D,/ C,/A,/A,/G,/ | %8
 F,/[K:alto] D/D/D/ C/F/E/D/ C/A/G/F/ G/E/F/D/ | C/A,/B,/C/ D/F/E/G/ FA G/F/E/D/ | %10
 CD/E/ F/G/E/F/ D/B,/C/D/ E/^G,/A,/B,/ | C/E/F/G/ A/C/D/E/ F/D/E/F/ G/F/G/A/ | %12
 Bd c/B/A/G/ F/A/G/A/ B/D/C/D/ | E/G/F/G/ A/C/B,/C/ DF E/D/C/B,/ | %14
 A,D/C/ B,G,/F,/ E,A,/G,/ F,/B,/B,/A,/ | G,/C/C/B,/ A,/D/D/C/ B,/E/E/D/ C/F/F/E/ | %16
 F/F,/E,/F,/ G,/D/C/D/ E/E,/E,/F,/ G,/C/B,/C/ | %17
 D/[K:bass] D,/D,/E,/ F,/A,/G,/F,/ G,/E,/F,/D,/ E,/C,/B,,/D,/ | %18
 C,/A,,/B,,/C,/ D,/E,,/F,,/G,,/ A,,G,, A,,2 | D,,4 z4 |[K:alto] z AGF EFE>D | %21
 CA,/B,/ C/D/E/F/ GB,CA | FD, F,>G, A,D/C/ B,E/D/ | C2 x2 G,DEE, | F,CDD, E,G, A,D/C/ | %25
 B,2 C2 D2 B,2 | CABD EGAC | DF GB,/D/ CA,/C/ B,G,/B,/ | %28
 A,/F,/D/C/ B,/G,/E/D/ C/A,/F/E/ D/B,/E/F/ | %29
 G/F/E/D/ C/D/C/B,/[K:bass] A,/G,/F,/E,/ D,/C,/B,,/A,,/ | %30
 G,,/A,,/B,,/G,,/ D,/E,/F,/D,/ A,/A,,/C,/D,/ E,/F,/G,/E,/ | %31
 B,/B,,/D,/E,/ F,/G,/A,/F,/[K:alto] B,/C/D/B,/ F/C/F/E/ | D/E/F/D/ A/B/c/A/ d/D/F/G/ A/A,/B,/C/ | %33
 D/[K:bass] D,/F,/G,/ A,/A,,/C,/D,/ E,/E,,/G,/A,/ B,/B,,/D,/E,/ | %34
 F,/D,/F,/G,/ A,/D/C/B,/ A,/[K:alto] F/E/D/ C/A/G/F/ | EF G/F/E/D/ E4 | !^!D8 | %37
 z D/C/ B,E CA,/G,/ F,B, | E,E/D/ CF DG/F/ EA | F[K:bass] D,/C,/ B,,E, A,,A,/G,/ F,B, | %40
 E,,G,C,A, D,,[K:tenor] D/C/ B,E | A,,CF,D G,,B,^E,C |[K:bass] A,,A,/B,/ CA,,/G,,/ F,,B,/C/ DF, | %43
 G,G,,A,,C DB,,C,[K:alto] E | F/E/D G/F/E AA,!<(! B,/A,/G, | %45
 C/B,/A, D/C/B,!<)!!ff! ME2 F/D,/D,/D,/ | %46
 C,/E/E/E/ B,,/D/D/D/ C/[K:bass] A,,/A,,/A,,/ G,,/B,/B,/B,/ | %47
 C/A,,/A,,/A,,/ B,,/D/D/D/[Q:1/4=80] E/C,/C,/C,/ D,[K:alto] F | TE3 D/E/ !breath!!fermata![A,D]4 || %49
[M:6/4][Q:1/4=120] z2!mp! A2 F2 G2 MF3 E | D2 EF G2 F2 E3 D | C2 E2 A,2 F2 B,2 D2 | %52
 ^G,2 ED CDB,C A,B,A,=G, | F,A,B,C DF,^G,A, G,EDE | A,FEF B,GFG CAGA | %55
 D2[K:bass] D,2 G,2 E,2 A,2 C,2 | D,2 F,,2 G,,2 E,,2 MA,,3 G,, | F,,2 D,,E,, F,,2 D,2 G,,2 B,,2 | %58
 E,,2 E,D, C,2 A,2 D,2 F,2 | B,,2[K:alto] B,C D2 B,2 MF3 E | DEDC (B,CB,A,) G,A,G,F, | %61
 E,EGF EDCB, ^A,4 | B,2 A,2 G,2 G2 F4 | E2 E,F, G,E,G,A, B,G,B,C | DA,DE FDFG AA,A,B, | %65
 CA,CD ECEF GB,B,C | DF,F,G, A,CCD EB,B,C | DFFG ACCD EE,E,F, | G,B,B,C DD,D,E, F,DDC | %69
 B,EED C2 x2 D2 x2 | EAGF EDCB, A,G,F,E, | D,DCB,[K:bass] A,B,A,G, F,G,F,E, | %72
 D,E,D,C, B,,B,A,G, F,G,F,E, | D,E,D,C, B,,C,B,,A,, G,,A,,B,,C, | D,2 D,,2 D,E,F,G, A,2 C,2 | %75
 A,,B,,C,D, E,2 E,,2 E,F,G,A, | B,2 B,,2 B,A,G,F, E,2 B,2 |[K:alto] EDCB, A,2 E2 C2 A2 | %78
 F2 D2 B,2 G2 C2 E2 | F2 A,2 B,2 D2 E2 ^G,2 | A,2 C2 F,2 D2 =G,2 B,2 | E,2 ED C2 B,2 A,2 G,2 | %82
 F,2 DC B,2 G,2 D2 G2 | C2 A,2 E2 A2 F2 D2 | G2 B,2 E2 C2 F2 A,2 | D2 B,2 E2 ^G,2 C2 A,2 | %86
 D2 F,2 =G,2 B,2[K:bass] E,2 F,G, | A,2 C,2 D,2 F,2 B,,2 D,2 | G,,2 G,F, E,F,D,E, C,D,B,,C, | %89
 A,,2 A,G,!<(! F,A,B,C[K:alto] DEFG | A2 D2 E6 ME2!<)! |!f! !breath!!fermata!D12 || %92
[M:4/4][Q:1/4=100]"^Allegro" z DA,C B,E^G,D | CAEG F/D/E/F/ MGB, | C/E/D/E/ MFA, B,/D/C/D/ ME^G, | %95
 A,C B,A,/B,/ CE A,/B,/C/A,/ | B,E B,/C/D/B,/ C/A,/B,/C/ D/E/F/G/ | %97
 E/F/G/A/ F/D/F/G/ A/A,/B,/C/[Q:1/4=80] D/E/F/G/ | EF[Q:1/4=40] PMED/E/ !breath![A,D]4 | %99
"^Adagio"[Q:1/4=40] DCMB,A, B,A,G,F, | %100
[K:bass] G,/G,,/[Q:1/4=45]A,,/B,,/[Q:1/4=50] C,/D,/E,/F,/[Q:1/4=60] G,/F,/G,/B,/[K:alto][Q:1/4=70] C/D/E/F/ | %101
 G4- GFED |[Q:1/4=80] E2[Q:1/4=60] F2[Q:1/4=40] TE4 |{/!fermata!D} !^!!fermata![D,F,A,D]8 |] %104
V:2
 x8 | x8 | x8 | x8 | x8 | x8 |[K:bass] x8 | x8 | x/[K:alto] x15/2 | x8 | x8 | x8 | x8 | x8 | x8 | %15
 x8 | x8 | x/[K:bass] x15/2 | x8 | x8 |[K:alto] x8 | x8 | D2 x6 | A,EFF, x4 | x6 F,2 | %25
 G,E/D/ A,F/E/ B,A, G,E/D/ | x8 | x8 | x8 | x4[K:bass] x4 | x8 | x4[K:alto] x4 | x8 | %33
 x/[K:bass] x15/2 | x9/2[K:alto] x7/2 | x4 D2 MC2 | x8 | x8 | x8 | x[K:bass] x7 | x5[K:tenor] x3 | %41
 x8 |[K:bass] x8 | x7[K:alto] x | x8 | x8 | x9/2[K:bass] x7/2 | x7[K:alto] x | A,2 x2 [D,F,]4 || %49
[M:6/4] x12 | x12 | x12 | x12 | x12 | x12 | x2[K:bass] x10 | x12 | x12 | x12 | x2[K:alto] x10 | %60
 x12 | x8 F,2 E,2 | [^D,F,]2 x2 E,2 x2 B,2 A,2 | x12 | x12 | x12 | x12 | x12 | x12 | %69
 G,2 x2 A,FFE B,GGF | x12 | x4[K:bass] x8 | x12 | x12 | x12 | x12 | x12 |[K:alto] x12 | x12 | x12 | %80
 x12 | x12 | x12 | x12 | x12 | x12 | x8[K:bass] x4 | x12 | x12 | x8[K:alto] x4 | x4 D6 C2 | D12 || %92
[M:4/4] x8 | x8 | x8 | x2 E,2 A,2 x2 | x8 | x8 | CD A,2 [D,F,]4 | x8 |[K:bass] x6[K:alto] x2 | x8 | %102
 C2 D2 !^!A,4 | x8 |] %104
V:3
!f! D,6 C,2 | D,4 D,2 A,,2 | D,2 A,2 D,2 E,2 | F,2 =G,2 A,F, A,2 | D,3 E, F,G, A,2 | %5
 D,2 F,E, F,G,A,A,, | D,2 E,2 F,G, A,2 | D,4 A,,D, C,2 | D,2 A,B, A,D, G,2 | A,2 F,E, D,F,, G,,2 | %10
 A,,2 F,,2 G,,2 E,,2 | A,,F,, G,,2 A,,2 D,2 | E,2 F,2 G,2 A,2 | E,2 C,2 B,,2 G,,2 | %14
 A,,F,, G,,2 A,,2 D,2 | E,2 F,2 G,2 A,2 | D,2 G,2 E,4 | D,4 E,D, C,B,, | A,,2 F,,>G,, A,,G,, A,,2 | %19
 D,,4- D,,D,C,B,, | A,,2 B,,2 C,D,C,B,, | A,,A,G,F, E,2 C,2 | D,4 A,F, G,2 | A,2 D,2 E,2 C,2 | %24
 D,C, B,,2 E,2 F,D, | E,2 A,,2 B,,2 E,2 | A,,2 G,,F,, E,,2 A,,F,, | B,,2 G,,2 A,,2 G,,2 | %28
 F,,2 G,,2 A,,2 B,,2 | E,2 A,G, F,2 D,2 | G,,2 D,,D, A,,2 E,2 | B,,2 F,2 B,,2 ^A,,2 | %32
 B,,2 =A,,G,, F,,D,, C,2 | D,2 A,,2 E,2 B,,2 | D,2 A,2 A,,4 | A,,2 B,,2 G,,2 A,,2 | !^!D,8 | %37
 D,2 E,2 A,,2 B,,2 | C,2 A,,2 B,,2 C,2 | D,2 B,,E, A,,A, F,F,, | E,,2 A,,2 D,,2 D,2 | C,4 B,,4 | %42
 A,,3 G,, F,,3 D, | G,,2 A,,2 B,,2 C,2 | D,2 E,2 F,2 G,2 | A,2 B,2 C2 DD, | C,2 B,,2 A,,2 G,,2 | %47
 A,,2 B,,2 C,2 D,2 | A,,4 D,4 ||[M:6/4]!mp! D,8 A,,4 | B,,4 G,,8 | A,,4 A,4 B,4 | %52
 E,4 A,2 =G,2 F,2 E,2 | D,4 B,,4 E,4 | F,2 D,2 =G,2 E,2 A,2 C,2 | D,4 G,2 E,2 A,2 A,,2 | %56
 D,2 F,,2 G,,2 E,,2 A,,4 | D,,6 D,2 G,,2 B,,2 | E,,4 A,,4 D,2 F,2 | B,,4 B,4 ^A,4 | B,4 B,4 G,4 | %61
 E,8 F,4 | ^D,2 B,,2 E,4 ^D,4 | E,8 G,4 | D,8 A,,4- | A,,4 A,4 E,4 | B,,4 A,,4 E,4 | %67
 B,,4 A,,4 E,,4 | E,4 D,8 | G,,4 A,,4 B,,4 | C,12 | D,12- | D,4 B,,8- | B,,8 G,,4 | D,8 A,,4- | %75
 A,,4 E,8 | B,,4 ^D,4 E,4 | ^G,4 A,4 A,,4 | D,4 =G,4 A,4 | D,4 G,4 C,4 | F,4 F,4 =G,4 | E,12 | %82
 F,4 G,6 E,2 | A,4 C,4 D,4 | E,8 D,4- | D,4 C,8 | B,,12 | A,,4 D,4 B,,4 | G,,12 | A,,4 D,8 | %90
 F,,4 A,,4 [A,,,A,,]4 |!f! !fermata![D,,D,]12 ||[M:4/4] D,2 F,2 G,2 E,2 | A,2 C,2 D,2 E,2 | %94
 A,2 D,2 G,2 C,2 | F,D, E,2 A,,=G,, F,,2 | G,,2 ^G,,2 A,,2 D,2 | C,2 D,2 C,2 B,,2 | G,,2 A,,2 D,4 | %99
 [D,,D,]4 G,,4 | G,,8 | G,F,E,D, C,2 D,2 | A,,4 !^![A,,,A,,]4 | !^!!fermata![D,,D,]8 |] %104
V:4
!f! D,6 C,2 | D,4 D,2 A,,2 | D,2 A,2 D,2 E,2 | F,2 =G,2 A, F, A,2 | D,3 E, F, G, A,2 | %5
 D,2 F, E, F, G, A, A,, | D,2 E,2 F, G, A,2 | D,4 A,, D, C,2 | D,2 A, B, A, D, G,2 | %9
 A,2 F, E, D, F,, G,,2 | A,,2 F,,2 G,,2 E,,2 | A,, F,, G,,2 A,,2 D,2 | E,2 F,2 G,2 A,2 | %13
 E,2 C,2 B,,2 G,,2 | A,, F,, G,,2 A,,2 D,2 | E,2 F,2 G,2 A,2 | D,2 G,2 E,4 | D,4 E, D, C, B,, | %18
 A,,2 F,,3/2 G,,/ A,, G,, A,,2 | D,,4- D,,D,C,B,, | A,,2 B,,2 C,D,C,B,, | A,, A, G, F, E,2 C,2 | %22
 D,4 A, F, G,2 | A,2 D,2 E,2 C,2 | D, C, B,,2 E,2 F, D, | E,2 A,,2 B,,2 E,2 | %26
 A,,2 G,, F,, E,,2 A,, F,, | B,,2 G,,2 A,,2 G,,2 | F,,2 G,,2 A,,2 B,,2 | E,2 A, G, F,2 D,2 | %30
 G,,2 D,, D, A,,2 E,2 | B,,2 F,2 B,,2 ^A,,2 | B,,2 =A,, G,, F,, D,, C,2 | D,2 A,,2 E,2 B,,2 | %34
 D,2 A,2 A,,4 | A,,2 B,,2 G,,2 A,,2 | !^!D,8 | D,2 E,2 A,,2 B,,2 | C,2 A,,2 B,,2 C,2 | %39
 D,2 B,, E, A,, A, F, F,, | E,,2 A,,2 D,,2 D,2 | C,4 B,,4 | A,,3 G,, F,,3 D, | G,,2 A,,2 B,,2 C,2 | %44
 D,2 E,2 F,2 G,2 | A,2 B,2 C2 D D, | C,2 B,,2 A,,2 G,,2 | A,,2 B,,2 C,2 D,2 | A,,4 D,4 || %49
[M:6/4]!mp! D,8 A,,4 | B,,4 G,,8 | A,,4 A,4 B,4 | E,4 A,2 =G,2 F,2 E,2 | D,4 B,,4 E,4 | %54
 F,2 D,2 =G,2 E,2 A,2 C,2 | D,4 G,2 E,2 A,2 A,,2 | D,2 F,,2 G,,2 E,,2 A,,4 | D,,6 D,2 G,,2 B,,2 | %58
 E,,4 A,,4 D,2 F,2 | B,,4 B,4 ^A,4 | B,4 B,4 G,4 | E,8 F,4 | ^D,2 B,,2 E,4 ^D,4 | E,8 G,4 | %64
 D,8 A,,4- | A,,4 A,4 E,4 | B,,4 A,,4 E,4 | B,,4 A,,4 E,,4 | E,4 D,8 | G,,4 A,,4 B,,4 | C,12 | %71
 D,12- | D,4 B,,8- | B,,8 G,,4 | D,8 A,,4- | A,,4 E,8 | B,,4 ^D,4 E,4 | ^G,4 A,4 A,,4 | %78
 D,4 =G,4 A,4 | D,4 G,4 C,4 | F,4 F,4 =G,4 | E,12 | F,4 G,6 E,2 | A,4 C,4 D,4 | E,8 D,4- | %85
 D,4 C,8 | B,,12 | A,,4 D,4 B,,4 | G,,12 | A,,4 D,8 | F,,4 A,,4 [A,,,A,,]4 | [D,,D,]12 || %92
[M:4/4] D,2 F,2 G,2 E,2 | A,2 C,2 D,2 E,2 | A,2 D,2 G,2 C,2 | F, D, E,2 A,, =G,, F,,2 | %96
 G,,2 ^G,,2 A,,2 D,2 | C,2 D,2 C,2 B,,2 | G,,2 A,,2 D,4 | [D,,D,]4 G,,4 | G,,8 | %101
 G, F, E, D, C,2 D,2 | A,,4 !^![A,,,A,,]4 | !^!!fermata![D,,D,]8 |] %104
V:5
 x8 | x8 | x8 | x8 | x8 | x8 | x8 | x8 | x8 | x8 | x8 | x8 | x8 | x8 | x8 | x8 | x8 | x8 | x8 | %19
 x8 | x8 | x8 | x8 | x8 | x8 | x8 | x8 | x8 | x8 | x8 | x8 | x8 | x8 | x8 | x8 | x8 | x8 | x8 | %38
 x8 | x8 | x8 | x8 | x8 | x8 | x8 | x8 | x8 | x8 | x8 ||[M:6/4] [F,A,D]12 | x12 | x12 | x12 | x12 | %54
 x12 | x12 | x12 | x12 | x12 | x12 | x12 | x12 | x12 | x12 | x12 | x12 | x12 | x12 | x12 | x12 | %70
 x12 | x12 | x12 | x12 | x12 | x12 | x12 | x12 | x12 | x12 | x12 | x12 | x12 | x12 | x12 | x12 | %86
 x12 | x12 | x12 | x12 | x12 | x12 ||[M:4/4] x8 | x8 | x8 | x8 | x8 | x8 | x8 | x8 | x8 | x8 | x8 | %103
 x8 |] %104

